Sources/FrostedUI/Resources/Icons.xcassets/dashedCircle32.imageset/dashed-circle-32.svg

<svg width="32" height="32" viewBox="0 0 32 32" fill="none" xmlns="http://www.w3.org/2000/svg" data-fui-icon="true">
  <path
    d="M18.2266 31.8438C17.4988 31.9451 16.7557 32 16 32C15.244 32 14.5005 31.9452 13.7725 31.8438L13.9795 30.3604C14.6391 30.4522 15.3136 30.5 16 30.5C16.6864 30.5 17.3609 30.4522 18.0205 30.3604L18.2266 31.8438ZM7.07324 27.4277C8.13045 28.2549 9.30475 28.9379 10.5664 29.4482L10.2852 30.1426L10.1562 30.4648L10.0049 30.8379C8.61125 30.2743 7.31472 29.521 6.14844 28.6084H6.14941L6.16504 28.5879L7.07324 27.4277ZM25.8506 28.6084C24.6842 29.5209 23.3878 30.2743 21.9941 30.8379L21.7139 30.1436V30.1426L21.4336 29.4482C22.6952 28.9379 23.8696 28.2549 24.9268 27.4277L25.8506 28.6084ZM2.55176 21.4336C3.06206 22.6952 3.74514 23.8696 4.57227 24.9268L3.39062 25.8506C2.47818 24.6843 1.72464 23.3878 1.16113 21.9941L2.55176 21.4336ZM30.1426 21.7139L30.5225 21.8672L30.8379 21.9941C30.2743 23.3878 29.5209 24.6842 28.6084 25.8506L28.0186 25.3887H28.0176L27.4277 24.9268C28.2549 23.8696 28.9379 22.6952 29.4482 21.4336L30.1426 21.7139ZM1.63965 13.9795C1.54778 14.6391 1.5 15.3136 1.5 16C1.5 16.6864 1.54778 17.3609 1.63965 18.0205L0.155273 18.2266C0.053942 17.4988 0 16.7556 0 16C0 15.244 0.0538546 14.5005 0.155273 13.7725L1.63965 13.9795ZM31.8438 13.7725C31.9452 14.5005 32 15.244 32 16C32 16.7557 31.9451 17.4988 31.8438 18.2266L30.3604 18.0205C30.4522 17.3609 30.5 16.6864 30.5 16C30.5 15.3136 30.4522 14.6391 30.3604 13.9795L31.8438 13.7725ZM3.3916 6.14941L4.57227 7.07324C3.74514 8.13045 3.06206 9.30475 2.55176 10.5664L1.85645 10.2852L1.16113 10.0049C1.7247 8.61131 2.47815 7.31469 3.39062 6.14844L3.3916 6.14941ZM28.6084 6.14844C29.521 7.31472 30.2743 8.61125 30.8379 10.0049L30.1436 10.2861L30.1426 10.2852L29.4482 10.5664C28.9379 9.30475 28.2549 8.13045 27.4277 7.07324L28.6084 6.14941V6.14844ZM10.2861 1.85645H10.2852L10.5664 2.55176C9.30475 3.06206 8.13045 3.74514 7.07324 4.57227L6.14941 3.3916L6.14844 3.39062C7.31469 2.47815 8.61131 1.7247 10.0049 1.16113L10.2861 1.85645ZM21.9941 1.16113C23.3878 1.72464 24.6843 2.47818 25.8506 3.39062V3.3916L24.9268 4.57227C23.8696 3.74514 22.6952 3.06206 21.4336 2.55176L21.9941 1.16113ZM16 0C16.7556 0 17.4988 0.053942 18.2266 0.155273L18.0205 1.63965C17.3609 1.54778 16.6864 1.5 16 1.5C15.3136 1.5 14.6391 1.54778 13.9795 1.63965L13.7725 0.155273C14.5005 0.0538546 15.244 0 16 0Z"
    fill="currentColor"
  />
</svg>

<svg xmlns="http://www.w3.org/2000/svg" width="32" height="32" fill="none" data-fui-icon="true" viewBox="0 0 32 32"><path fill="currentColor" d="M18.227 31.844c-.728.101-1.471.156-2.227.156s-1.5-.055-2.227-.156l.207-1.484a14.7 14.7 0 0 0 4.04 0zM7.073 27.428a14.5 14.5 0 0 0 3.493 2.02l-.28.695-.13.322-.151.373a16 16 0 0 1-3.857-2.23h.001l.016-.02zm18.778 1.18a16 16 0 0 1-3.857 2.23l-.28-.694v-.001l-.28-.695a14.5 14.5 0 0 0 3.493-2.02zm-23.3-7.174a14.5 14.5 0 0 0 2.021 3.493l-1.181.924a16 16 0 0 1-2.23-3.857zm27.592.28.38.153.315.127a16 16 0 0 1-2.23 3.857l-.59-.462-.59-.462a14.5 14.5 0 0 0 2.02-3.493zM1.64 13.98a14.6 14.6 0 0 0 0 4.04l-1.485.207a16.1 16.1 0 0 1 0-4.454zm30.204-.207C31.945 14.5 32 15.244 32 16s-.055 1.499-.156 2.227l-1.484-.207a14.7 14.7 0 0 0 0-4.04zM3.392 6.149l1.18.924a14.5 14.5 0 0 0-2.02 3.493l-.696-.28-.695-.281a16 16 0 0 1 2.23-3.857zm25.216 0a16 16 0 0 1 2.23 3.856l-.694.281h-.001l-.695.28a14.5 14.5 0 0 0-2.02-3.493zM10.286 1.855l.28.696a14.5 14.5 0 0 0-3.493 2.02l-.924-1.18V3.39a16 16 0 0 1 3.856-2.23zm11.708-.695a16 16 0 0 1 3.857 2.23l-.924 1.181a14.5 14.5 0 0 0-3.493-2.02zM16 0q1.134.002 2.227.155L18.02 1.64a14.6 14.6 0 0 0-4.04 0L13.772.155A16 16 0 0 1 16 0"/></svg>
